NotoEmoji/emoji_u1f441.svg

<svg enable-background="new 0 0 128 128" viewBox="0 0 128 128" xmlns="http://www.w3.org/2000/svg"><path d="m64.32 103.32c-34.03 0-53.56-33.13-56.94-39.38 3.07-6.27 20.91-39.26 56.94-39.26s53.87 32.98 56.94 39.26c-3.38 6.25-22.92 39.38-56.94 39.38z" fill="#fafafa"/><path d="m64.32 27.12c15.81 0 29.84 6.42 41.7 19.09 6.63 7.08 10.73 14.26 12.49 17.67-4.51 7.99-23.05 36.99-54.19 36.99-14.88 0-28.63-6.45-40.89-19.17-6.89-7.15-11.37-14.41-13.3-17.82 1.75-3.41 5.86-10.6 12.49-17.67 11.86-12.67 25.89-19.09 41.7-19.09m0-4.88c-41.76 0-59.66 41.76-59.66 41.76s20.25 41.76 59.66 41.76 59.65-41.76 59.65-41.76-17.9-41.76-59.65-41.76z" fill="#b0bec5"/><path d="m64.32 37c26.97 0 45.47 16.51 53.66 27.71.96 1.31 1.99-4.99 1.12-6.36-7.84-12.26-25.41-32.91-54.77-32.91s-46.95 20.66-54.79 32.92c-.88 1.37.3 6.83 1.41 5.64 8.54-9.17 26.39-27 53.37-27z" fill="#b0bec5"/><circle cx="64.32" cy="60.79" fill="#9c7a63" r="33.15"/><path d="m64.32 37c10.87 0 20.36 2.68 28.36 6.62-5.81-9.58-16.34-15.97-28.36-15.97-12.28 0-23 6.69-28.72 16.61 8.01-4.22 17.58-7.26 28.72-7.26z" fill="#806451"/><circle cx="64.32" cy="60.79" fill="#212121" r="15.43"/><circle cx="88.86" cy="59.37" fill="#d9baa5" r="7.72"/><path d="m7.21 67.21c-.52 0-1.05-.13-1.54-.4-1.55-.85-2.12-2.8-1.27-4.35s21.28-40.21 59.92-40.21 58.47 37.89 59.29 39.41c.84 1.56.27 3.5-1.29 4.35-1.56.84-3.5.27-4.35-1.29-.18-.34-18.88-33.86-53.66-33.86-34.79 0-54.11 34.34-54.3 34.69-.58 1.06-1.67 1.66-2.8 1.66z" fill="#616161"/></svg>

<?xml version="1.0" encoding="utf-8"?>
<!-- Generator: Adobe Illustrator 24.1.2, SVG Export Plug-In . SVG Version: 6.00 Build 0)  -->
<svg version="1.1" id="Layer_3" xmlns="http://www.w3.org/2000/svg" xmlns:xlink="http://www.w3.org/1999/xlink" x="0px" y="0px"
	 viewBox="0 0 128 128" style="enable-background:new 0 0 128 128;" xml:space="preserve">
<g>
	<g>
		<path style="fill:#FAFAFA;" d="M64.32,103.32c-34.03,0-53.56-33.13-56.94-39.38c3.07-6.27,20.91-39.26,56.94-39.26
			c36.03,0,53.87,32.98,56.94,39.26C117.88,70.19,98.34,103.32,64.32,103.32z"/>
		<path style="fill:#B0BEC5;" d="M64.32,27.12c15.81,0,29.84,6.42,41.7,19.09c6.63,7.08,10.73,14.26,12.49,17.67
			c-4.51,7.99-23.05,36.99-54.19,36.99c-14.88,0-28.63-6.45-40.89-19.17c-6.89-7.15-11.37-14.41-13.3-17.82
			c1.75-3.41,5.86-10.6,12.49-17.67C34.48,33.54,48.51,27.12,64.32,27.12 M64.32,22.24C22.56,22.24,4.66,64,4.66,64
			s20.25,41.76,59.66,41.76S123.97,64,123.97,64S106.07,22.24,64.32,22.24L64.32,22.24z"/>
	</g>
	<g>
		<path style="fill:#B0BEC5;" d="M64.32,37c26.97,0,45.47,16.51,53.66,27.71c0.96,1.31,1.99-4.99,1.12-6.36
			c-7.84-12.26-25.41-32.91-54.77-32.91S17.38,46.1,9.54,58.36c-0.88,1.37,0.3,6.83,1.41,5.64C19.49,54.83,37.34,37,64.32,37z"/>
	</g>
	<g>
		<circle style="fill:#9C7A63;" cx="64.32" cy="60.79" r="33.15"/>
		<path style="fill:#806451;" d="M64.32,37c10.87,0,20.36,2.68,28.36,6.62c-5.81-9.58-16.34-15.97-28.36-15.97
			c-12.28,0-23,6.69-28.72,16.61C43.61,40.04,53.18,37,64.32,37z"/>
		<circle style="fill:#212121;" cx="64.32" cy="60.79" r="15.43"/>
		<circle style="fill:#D9BAA5;" cx="88.86" cy="59.37" r="7.72"/>
	</g>
	<g>
		<path style="fill:#616161;" d="M7.21,67.21c-0.52,0-1.05-0.13-1.54-0.4c-1.55-0.85-2.12-2.8-1.27-4.35
			c0.85-1.55,21.28-40.21,59.92-40.21c38.64,0,58.47,37.89,59.29,39.41c0.84,1.56,0.27,3.5-1.29,4.35c-1.56,0.84-3.5,0.27-4.35-1.29
			c-0.18-0.34-18.88-33.86-53.66-33.86c-34.79,0-54.11,34.34-54.3,34.69C9.43,66.61,8.34,67.21,7.21,67.21z"/>
	</g>
</g>
</svg>
